usr/share/icons/biglinux-icons-material-dark/22/actions/format-precision-less.svg

<svg xmlns="http://www.w3.org/2000/svg" viewBox="0 0 22 22">
  <defs id="defs3051">
    <style type="text/css" id="current-color-scheme">
      .ColorScheme-Text {
        color:#dedede;
      }
      </style>
  </defs>
 <path 
     style="fill:currentColor;fill-opacity:0.5;stroke:none" 
     d="M 15.5 3 C 13.567 3 12 4.7909 12 7 L 12 8 L 12 10 C 12 12.2091 13.567 14 15.5 14 C 17.433 14 19 12.2091 19 10 L 19 8 L 19 7 C 19 4.7909 17.433 3 15.5 3 z M 15.5 4 C 16.88071 4 18 5.3431 18 7 L 18 10 C 18 11.6569 16.88071 13 15.5 13 C 14.11929 13 13 11.6569 13 10 L 13 7 C 13 5.3431 14.11929 4 15.5 4 z "
     class="ColorScheme-Text"
     />
 <path 
     style="fill:currentColor;fill-opacity:1;stroke:none" 
     d="M 7.5 3 C 5.567 3 4 4.7909 4 7 L 4 8 L 4 10 C 4 12.2091 5.567 14 7.5 14 C 9.433 14 11 12.2091 11 10 L 11 8 L 11 7 C 11 4.7909 9.433 3 7.5 3 z M 7.5 4 C 8.88071 4 10 5.34315 10 7 L 10 10 C 10 11.65685 8.88071 13 7.5 13 C 6.11929 13 5 11.65685 5 10 L 5 7 C 5 5.34315 6.11929 4 7.5 4 z M 2 13 L 2 14 L 3 14 L 3 13 L 2 13 z "
     class="ColorScheme-Text"
     />
 <path 
     style="fill:#da4453;fill-opacity:1;stroke:none" 
     d="M 14.085938 15 L 13.378906 15.707031 L 14.792969 17.121094 L 13.378906 18.535156 L 14.085938 19.242188 L 15.5 17.828125 L 16.914062 19.242188 L 17.621094 18.535156 L 16.207031 17.121094 L 17.621094 15.707031 L 16.914062 15 L 15.5 16.414062 L 14.085938 15 z "
     class="ColorScheme-Text"
     />
</svg>

<svg xmlns="http://www.w3.org/2000/svg" viewBox="0 0 22 22">
<defs id="defs3051">
<style id="current-color-scheme" type="text/css">
.ColorScheme-Text{color:#dedede}
</style>
</defs>
<path d="M15.5 3C13.567 3 12 4.79 12 7v3c0 2.21 1.567 4 3.5 4s3.5-1.79 3.5-4V7c0-2.21-1.567-4-3.5-4m0 1C16.88 4 18 5.343 18 7v3c0 1.657-1.12 3-2.5 3S13 11.657 13 10V7c0-1.657 1.12-3 2.5-3" class="ColorScheme-Text" style="fill:currentColor;fill-opacity:.5;stroke:none"/>
<path d="M7.5 3C5.567 3 4 4.79 4 7v3c0 2.21 1.567 4 3.5 4s3.5-1.79 3.5-4V7c0-2.21-1.567-4-3.5-4m0 1C8.88 4 10 5.343 10 7v3c0 1.657-1.12 3-2.5 3S5 11.657 5 10V7c0-1.657 1.12-3 2.5-3M2 13v1h1v-1z" class="ColorScheme-Text" style="fill:currentColor;fill-opacity:1;stroke:none"/>
<path d="m14.086 15-.707.707 1.414 1.414-1.414 1.414.707.707 1.414-1.414 1.414 1.414.707-.707-1.414-1.414 1.414-1.414-.707-.707-1.414 1.414z" class="ColorScheme-Text" style="fill:#da4453;fill-opacity:1;stroke:none"/>
</svg>
